X:74
T: Der heimkehrende Braeutigam
N: Q0102B
O: Mitteleuropa, Deutschland (BRD) , Baden
R: Ballade, Ehe - Geloebnis, Betrug
M: 6/8
L: 1/16
K: G
D2 | B,2D2G2B,2D2G2 | B6G4
B2 | A3FFFG2E2A2 | D6z4
D2 | c3BA2A3GF2 | G4B2D4
G2 | E3EEEG2F2E2 | D6z4
Bd | B3AGGA3GF2 | G6z4

